X:1
T:Flute Sonata in A major
T:BWV 1032 (Missing part reconstructed by Ubaldo Di Gregorio)
T:J. S. Bach
%%score { 1 | ( 2 3 ) } { ( 4 7 ) | ( 5 6 ) }
L:1/8
M:4/4
K:A
V:1 treble nm="ハープ"
V:2 bass 
V:3 bass 
V:4 treble nm="ハープ"
V:7 treble 
V:5 bass 
V:6 bass 
V:1
"^Vivace""^Vivace" z8 | z8 | z8 | z8 | z8 | z8 | z8 | z8 | z e a/e/f/d/ c/d/e- e/a/f/d/ | %9
 c/d/e- e/a/f/d/ B/c/d- d/e/c/A/ | BE z a g/f/e/d/ c/d/e/a/ | %11
 g/f/e/d/ c/d/e/c/ B/4A/4B/4A/4B/4A/4B/4A/4 z g | a/f/g/b/ a/g/f/e/ ^d/e/f- f/b/g/e/ | %13
 ^d/e/f- f/b/g/e/ c/e/a- a/g/4f/4g/f/4e/4 | a/c'/b- b/a/g/f/ e/^d/c/a/ d>e | %15
 f/4e/4f/4e/4f/4e/4f/4e/4 f/4e/4f/4e/4f/4e/4f/4e/4 f/4e/4f/4e/4f/4e/4f/4e/4 f/4e/4f/4e/4f/4e/4f/4e/4 | %16
 f/4e/4f/4e/4f/4e/4f/4e/4 f/4e/4d/c/e/ A/G/F/G/ A/4G/4A/4G/4A/4G/4A/ | %17
 A/a/g z/ g/a/b/ c'/b/a/g/ a/b/4c'/4g/a/4b/4 | a/g/f/^e/ f/g/4a/4e/f/4g/4 f/=e/^d/c/ d/e/f/d/ | %19
 c/B/c/^d/ e/f/g/e/ f/e/d/f/ e/f/g/e/ | f/e/^d/f/ e/f/g/e/ c'b a/g/a/b/ | a/4g/4a/4g/4f z2 z4 | %22
 z8 | z8 | z/ B/c/^d/ e/f/g/e/ f/e/d/f/ e/f/g/e/ | f/e/^d/f/ e/f/g/e/ c'b a/g/a/b/ | %26
 a/4g/4a/4g/4f z/ f/g/a/ b/a/g/f/ g/f/4e/4f/g/4a/4 | %27
 g/f/e/^d/ e/d/4c/4d/e/4f/4 e/=d/c/B/ c/B/4A/4B/c/4d/4 | c/e/^d/e/ f/d/e/f/ B/d/c/d/ e/c/d/e/ | %29
 A4- A/B/^d/f/ a/c'/b/a/ | g/f/e/g/ f/e/^d/f/ f/4e/4f/4e/4f/4e/4f/4e/4 f/4e/4f/4e/4f/4e/4f/4e/4 | %31
 f/4e/4f/4e/4f/4e/4f/4e/4 f/4e/4f/4e/4f/4e/4f/4e/4 f/4e/4b/a/f/ g/f/4e/4f/e/4^d/4 | %32
 e>f e/4^d/4e/4d/4e/4d/4e/ e4- | eeca{g} f4- | f/c'/b/a/ a/4g/4a/4g/4f/e/ e2 z2 | z8 | %36
 z4 z/ F/G/^A/ B/c/d/B/ | c/B/^A/c/ B/c/d/B/ c/B/A/c/ B/c/d/B/ | %38
 =gf e/d/e/f/ d/c/B/d/ e/d/4c/4d/c/4B/4 | c/e/d/f/ =g/f/4e/4f/e/4d/4 e/g/f/^a/ b/=a/4^g/4a/g/4f/4 | %40
 ^ecAf ec'af | z cAF z f2 ^e | %42
 g/4f/4g/4f/4g/4f/4g/4f/4 g/4f/4g/4f/4g/4f/4g/4f/4 g/4f/4g/4f/4g/4f/4g/4f/4 g/4f/4g/4f/4g/4f/4g/4f/4 | %43
 g/4f/4g/4f/4g/4f/4g/4f/4 g/4f/4g/4f/4g/4f/4g/4f/4 g/4f/4d/c/B/ g/a/b/f/ | %44
 ^e/f/e/f/ g2- g/B/A/f/ e>f | fc'af z cAF | z c a2- ab/a/ g2- | gA f2- f/a/g/f/ ^e3/2^d/4e/4 | %48
 f/^d/^e z2 z/ g/a/b/ c'/b/a/g/ | ac' f2 z/ f/g/!courtesy!^a/ b/=a/g/f/ | gb e2 z/ e/f/g/ a2- | %51
 a/B/c/^d/ e/d/e/f/ g/a/b/c'/ f2 | z/ f/g/^a/ b2- b/c/^d/^e/ f/e/f/g/ | %53
 a/b/c'/d'/ g2- g/f/4g/4a/4g/4f/4e/4 d2- | d/c/4B/4c/4B/4A/4G/4 A2- A/d/4c/4B/4A/4G/4F/4 ^E z | %55
 z ^efe fcdc | d^ABA B2 b2- | b/g/f/g/ a/f/g/a/ d4- | d/b/g/^e/ c2- c z z2 | %59
 z/ c/^d/^e/ f/c/=d/B/ c/f/d/B/ c/A/B/G/ | A/a/g/f/4^e/4 f/e/4^d/4e/4f/4g/ c/e/f/g/ e>f | %61
 f2 z b ^af z B | ^AF z B =g2- g a/g/ | f2- f=G e2- e/=g/f/e/ | d/B/c z/ c/d/e/ f/e/d/c/ df | %65
 B2 z/ B/c/^d/ e/=d/c/B/ ce | A2 z/ A/B/c/ d/c/d/e/ f/=g/a/b/ | e2 z/ e/f/g/ a2- a/B/c/^d/ | %68
 e/^d/e/f/ =g/a/b/=c'/ f2 z/ f/^g/^a/ | b2- b/^a/b/c'/ f2- f/e/4f/4=g/4f/4e/4d/4 | %70
 c2- c/B/4^A/4B/4=A/4=G/4F/4 G z z/ c/d/e/ | %71
 f/e/d/c/ d/c/4B/4c/d/4e/4 d/=c/B/A/ B/A/4=G/4A/B/4c/4 | %72
 B/A/=G/F/ G/F/4E/4F/G/4A/4 G/b/^a/b/ c'/a/b/c'/ | f4- f/d/c/d/ e/c/d/e/ | %74
 ^A/F/A/c/ e/=g/f/e/ d/c/B/d/ c/B/A/c/ | B8- | B/f/e/c/ d/B/c/^A/ B>=g d/4c/4d/4c/4d/4c/4B/ | %77
 B z z2 z4 | z8 | z/ A/B/c/ d/e/f/d/ e/d/c/e/ d/e/f/d/ | e/d/c/e/ d/e/f/d/ ba =g/f/f/a/ | %81
 g/4f/4 g/4f/4e z2 z4 | z8 | z8 | z/ A/B/c/ d/e/f/d/ e/d/c/e/ d/e/f/d/ | %85
 e/d/c/e/ d/e/f/d/ ba =g/f/g/a/ | g/4f/4g/4f/4e z/ e/f/=g/ a/g/f/e/ f/e/4d/4e/f/4g/4 | %87
 f/e/d/c/ d/c/4B/4c/d/4e/4 d4- | dc/B/ c/d/e/a/ g/f/e/d/ c/d/e/a/ | %89
 g/f/e/d/ c/d/e/c/ B/4A/4B/4A/4B/4A/4B/4A/4 z g | a/f/g/b/ a/g/f/e/ d/c/d- d/b/g/e/ | %91
 e/4d/4c/d- d/b/g/e/ c/e/a- a/g/4f/4g/f/4e/4 | d'/c'/d'- d'/b/c'/g/ a/e/f/d/ c/4B/4c/4B/4c/4B/4A/ | %93
 A2 z2 z4 | z8 | z4 z gag | a^ef=e fcdc | d4- dc/B/ c2- | c/f/B/c/ d/B/c/d/ E4- | %99
 E2 z2 z/ e/f/g/ a/e/f/d/ | e/a/f/d/ e/d/4c/4d/4c/4B/ c/A/F/d/ E/c/D/B/ | %101
 e>f A/4G/4A/4G/4A/4G/4A/ !fermata!A4 | z8 || %103
[K:C][M:6/8][Q:1/4=60]"^Largo e dolce" c/B/d/c/B/A/ B/4A/4B/4A/4^G z | %104
 e/d/f/e/d/c/ d/4c/4d/4c/4B z | ^c/d/ e2- e/d/f/e/d/=c/ | B/c/ d2- d/c/e/d/c/B/ | %107
 A3- A/^G/B/A/G/A/ | E3- E/^G/A/c/B/d/ | ^G/B/d/f/e/d/ c/d<de/ | %110
 f/4e/4f/4e/4f/4e/4f/4e/4f/4e/4f/4e/4 f/4e/4f/4e/4f/4e/4f/4e/4f/4e/4f/4e/4 | %111
 f/4e/4f/4e/4f/4e/4f/4e/4f/4e/4f/4e/4 f/4e/4f/4e/4f z | Bcd e/4d/4c/ B>c | c_B z A/G/B/A/G/F/ | %114
 d/4^c/4d/4c/4d/4c/4d/4c/4d- d/e/d/4c/4d/4c/4d/4c/4d/ | d3 cB z | cB/A/d B/A/G/A/B/c/ | %117
 d3- d/G/A/B/c/d/ | e3- e/A/B/^c/d/e/ | f3{g} ^fg z | g/^f/a/g/f/e/ ^d2 z | %121
 B/A/c/B/A/G/ A/4G/4A/4G/4^F z | g/^f/a/g/f/e/ e^d z | d>fe/d/ c3- | c>ed/c/ B3- | %125
 B/A/c/B/A/G/ ^F ^f2- | f/a/g/^f/e/^d/ e/f/g/b/a/c'/ | ^f^de- e/f<de/ | e/^f/^g/a/b/c'/ d'bg | %129
 fdB ^G=G z | ^F^G z ABG | A/^c/d/c/B/A/ d/c/e/d/c/d/ | e/d/f/e/d/e/ f3- | f/G/A/B/c/d/ e3- | %134
 e/A/^G/A/B/c/ d3- | d/c/e/d/c/B/ c/A/B^G | A/a/g/e/f/d/ e/g/f/d/e/c/ | d>ec- c/B<BA/ | %138
 A>Bc- c/d/e/4d/4e/4d/4e/4d/4e/ | e6 | z6 ||[K:A][M:3/8][Q:1/4=120]"^Allegro" z3 | z3 | z3 | z3 | %145
 z3 | z3 | z3 | z3 | Ae/^d/e/f/ | ge/g/f/a/ | g/^d/e/g/c' | b/4a/4b/4a/4b/4a/4b/4a/4g | %153
 f/c/^d/f/b/g/ | e/B/c/e/a/f/ | ^d/e<ed/4e/4 | f/e/^d/c/B/A/ | G/A/G/F/E/F/ | GAB- | B/G/A/B/c/d/ | %160
 e/d/c/B/A/G/ | F/G/A/F/G/A/ | B/f<^de/ | e2 z | Aag | fg/f/g/a/ | bgf | ef/e/f/g/ | afe | d3- | %170
 d/c/d/G/A/B/ | c/B/c/E/F/G/ | A/c/ e2- | e/B/c/e/a- | a/f/g/b/a/e/ | f/d/B z | e/c/A z | %177
 d/B/E/A/c/e/ | GB/4A/4B/4A/4B- | B/G/A/B/c/d/ | e/d/c/B/A/=G/ | F/=G/F/E/D/E/ | FA/4G/4A/4G/4A | %183
 G/E/F/G/A/B/ | c/e<BA/ | AA/c/e- | e/c/A/d/f- | f/d/B/d/g- | g/e/c/e/a/=g/ | f/e/d/c/B/A/ | %190
 d/c/d/B/c- | c/d/c/4B/4c/4B/4c/4B/4A/ | A2 z | z/ c/d/c/B/A/ | B/G/c/B/A/G/ | AFf- | f ^e2 | %197
 f/A/B z | g/B/c z | a/g/f/e/d/c/ | B/d/c/B/A/G/ | F a2- | af^d | B g2- | gec | A f2- | f^d^B | %207
 G/^B/ c2- | cc/4^B/4c/4B/4c/4B/4c/4B/4 | c2 z | z3 | z/ g/a/g/f/e/ | f/^d/g/f/e/d/ | egc'- | %214
 c' ^b2 | c'/b/a/g/f/e/ | ^d/f/a/c'/b/a/ | b/a/g/f/e/^d/ | c/e/g/b/a/g/ | a/g/f/e/^d/c/ | %220
 B/^d/f/a/g/f/ | g/a/b/B/c/^d/ | e/g/ b2- | b/f/g/b/e- | e/c/^d/f/e/B/ | c/A/f z | B/G/e z | %227
 a/f/B/e/g/b/ | ^def | Bba | ga/g/a/b/ | c'ag | fg/f/g/a/ | bgf | ef/e/f/g/ | afe | ^d2 z | %237
 Be/^d/e/f/ | ge/g/f/a/ | g/^d/e/g/c' | a2 g | f/c/^d/f/b/g/ | e/B/c/e/a/f/ | %243
 ^d/e/f/4e/4f/4e/4f/4e/4d/4e/4 | f/e/^d/c/B/A/ | G/A/G/F/E/F/ | GB/4A/4B/4A/4B- | B/G/A/B/c/d/ | %248
 e/d/c/B/A/G/ | F/G/A/F/G/A/ | B/f<^de/ | e/g<bg/ | e/g<c'a/ | f/a<^d'a/ | g/b/ e'2- | %255
 e'/d'/c'/b/a/g/ | f/e/f/^d/e- | e/f<^de/ | e2 z | z3 | z3 | z3 | z FG | AB=c | G=fe | de/d/=c/B/ | %266
 d/4=c/4d/4c/4d/4c/4d/4c/4d/4c/4d/4c/4 | =c/4B/4c/4B/4c/4B/4c/4B/4c/4B/4c/4B/4 | %268
 =c/4B/4B/e/d/^c/B/ | ^A/B/c/A/F/A/ | B/f/b/a/g/f/ | ^e/f/g/e/c/e/ | %272
 g/4f/4g/4f/4g/4f/4g/4f/4g/4f/4g/4f/4 | g/4f/4g/4f/4g/4f/4g/4f/4g/4f/4g/4f/4 | %274
 g/4f/4g/4f/4e/^d/e- | e^dc | c/4B/4c/4B/4c/4B/4c/4B/4c/4B/4c/4B/4 | %277
 c/4B/4c/4B/4c/4B/4c/4B/4c/4B/4c/4B/4 | c z2 | z3 | z c^d | ef=g | ^d=c'b | ab/a/=g/f/ | %284
 a/4=g/4a/4g/4a/4g/4a/4g/4a/4g/4a/4g/4 | g/4f/4g/4f/4g/4f/4g/4f/4g/4f/4g/4f/4 | g/4f/4f/b/a/g/f/ | %287
 ^e/f/g/e/c/e/ | f/c/f/e/^d/c/ | ^B/c/^d/B/G/B/ | ecf | ^dBe | cf/e/^d/c/ | ^B/^d<gB/ | c/e<^ac/ | %295
 ^d/f<^bd/ | e/g<c'b/ | a/g/f/e/^d/c/ | f/e/f/^d/e- | e/f<fg/ | g3- | g f2- | f e2 | %303
 e/4^d/4e/4d/4e/4d/4e/4d/4e/4d/4e/4d/4 | ^d/G/c/B/A/G/ | A/F/B/A/G/F/ | G3- | Gc/^B/c/^d/ | %308
 ec/e/^d/f/ | e/^B/c/e/a | f2 e | f/e/^d/f/e/c/ | ^B>Bc- | c/^d<^Bc/ | cG^A | Bcd | ^A=gf | %317
 ef/e/d/c/ | d/c/B/c/d/e/ | f/e/d/f/e/=g/ | f/e/d/f/b/d'/ | c'/b/^a/c'/b/f/ | a =g2- | %323
 g/c/f/e/d/c/ | e/4d/4e/4d/4e/4d/4e/4d/4e/4d/4e/4d/4 | e/4^d/4e/4d/4e/4d/4e/4d/4e/4d/4e/4d/4 | %326
 e z z | z3 | EA/G/A/B/ | =cA/c/B/d/ | =c/G/A/c/=f | e/4d/4e/4d/4e/4d/4e/4d/4 ^c | c/A/d/=c/B/A/ | %333
 A/4G/4A/4G/4A/4G/4A/4G/4A/4G/4F/4G/4 | A/=c/B/A/G/A/ | G z z | z3 | z/ e/=f/e/d/=c/ | %338
 d/B/e/d/=c/B/ | =c/d/e/=f/=g/e/ | =f/e/^f/g/a/b/ | g>bg/e/ | a>e=c/A/ | d>BG/E/ | =c>Ac/e/ | %345
 =f/c/d/f/_b | a/4g/4 a/4g/4 a/4g/4f/4g/4a- | a/g/4a/4 b/4a/4 b/4a/4 b/4a/4g/4a/4 | b3 | z3 | z3 | %351
 z3 | z3 | z3 | z3 | Be/^d/e/f/ | ge/g/f/a/ | g/^d/e/g/c' | b/4a/4b/4a/4b/4a/4b/4a/4 g | %359
 f/c/d/f/b/g/ | e/B/c/e/a/f/ | d3- | dc/B/c- | cBd- | dGB- | BAc- | cFA- | AGB- | B E2 | %369
 EA/G/A/B/ | cA/c/B/d/ | c/G/A/c/f | e/4d/4e/4d/4e/4d/4e/4d/4 c | B/F/G/B/e/c/ | A/E/F/A/d/B/ | %375
 G/A<AG/4A/4 | B2 z | e'/d'/c'/b/a/g/ | f/a/c'/e'/a/c'/ | d'/c'/b/a/g/f/ | e/g/b/d'/g/b/ | %381
 c'/b/a/g/f/e/ | d/f/a/c'/f/a/ | b/a/g/f/e/d/ | c2 z | B2 z | d>ec- | c/d<BA/ | A/c<ec/ | A/c<fd/ | %390
 B/d<gd/ | c/e/ a2- | a/=g/f/e/d/c/ | B/A/B/G/A- | A/B<GA/ | !fermata!A3 |] %396
V:2
 z8 | z8 | z8 | z8 | z8 | z8 | z8 | z8 | A,,A,/B,/ CD A,>B, CD | A,>B, CD EB,/A,/ G,A, | %10
 E,D,C,A,, E,E,,zE, | E,E,, z A,, D,C,B,,E, | A,,E,CA, B,>C ^DE | B,>C ^DE A,>G, F,E, | %14
 ^D,^D/C/ DB, CA,B,B,, | E,D,C,A,, E,D,C,A,, | E,D,C,A,, D,C,B,,E, | A,,E,/F,/ E,D, C,E,A,E, | %18
 A,,C,F,C, F,,F,/G,/ F,E, | ^D,B,G,E, B,B,,zB, | B,B,,zE, A,G,F,B, | E,B,, z2 z4 | z8 | z8 | %24
 E,,2 z E, B,A,G,E, | B,A,G,E, A,G,F,B, | E,B,/C/ ^DB, G,B,E, z | z G,C, z z E,A,, z | %28
 z F,^D,B, G,E,C,C | F,A,/G,/ F,E, ^D,F,B,,D, | E,G, A,B,/A,/ G,A,G,F, | G,A,G,F, E,4- | %32
 E,/B,,/C,/A,,/ B,,/^D,/F,/A,/ G,/E,/F,/G,/ A,/B,/C/A,/ | B,/A,/G,/B,/ A,/B,/C/A,/ ^D,F,D,B,, | %34
 E,/F,/G,/A,/ B,B,, E,,2 z2 | z8 | z4 E,C,D,B,, | F,F,,zF, F,F,, z =G,/F,/ | %38
 E,D,C,F, B,,B,/A,/ =G,F, | E,F,E,D, C,D,/C,/ D,B,, | C,C,,zC, C,C,,zC, | %41
 C,C,, z D,/C,/ B,,A,,G,,C, | F,,F,/E,/ D,C, B,,C,B,,A,, | G,,A,,/G,,/ A,,F,, B,,A,,B,,G,, | %44
 C,G,^E,C, F,B,CC, | F,,/C,/^D,/^E,/ F,/G,/A,/F,/ G,/F,/E,/G,/ F,/G,/A,/F,/ | %46
 G,/F,/^E,/G,/ F,/G,/A,/F,/ B,,/A,/G,/F,/ =E,/D,/C,/B,,/ | %47
 A,,/G,/F,/E,/ D,/C,/B,,/A,,/ G,,/F,/^E,/^D,/ C,/B,,/A,,/G,,/ | F,,C, z2 z2 z/ C,/^D,/^E,/ | %49
 F,/E,/D,/C,/ D,F, B,,2 z/ B,,/C,/^D,/ | E,/D,/C,/B,,/ C,E, A,,2 z/ B,,/C,/D,/ | %51
 E,/^D,/E,/F,/ G,/A,/G,/F,/ E,/F,,/G,,/A,,/ B,,/^A,,/B,,/C,/ | %52
 D,/E,/D,/C,/ B,,/C,/D,/E,/ F,/^E,/F,/G,/ A,/B,/A,/G,/ | F,/G,/A,/B,/ C/D/C/B,/ A,F,B,G, | %54
 ^E,C,F,D, B,,G,,C,B,, | A,,C,F,, z z A,,D,, z | z F,,B,, z z G,^E,C, | A,,C,F,F,, B,,C,D,B,, | %58
 C,2 z ^E, F,A, B,C/B,/ | A,G,A,B, A,B,A,G, | F,C, z B,, A,,D,/B,,/ C,C,, | %61
 F,,/F,/G,/^A,/ B,/C/D/B,/ C/B,/A,/C/ B,/C/D/B,/ | C/B,/^A,/C/ B,/C/D/B,/ E,/D/C/B,/ A,/G,/F,/E,/ | %63
 D,/C/B,/A,/ =G,/F,/E,/D,/ C,/B,/^A,/^G,/ F,/E,/D,/C,/ | B,,F, z2 z2 z/ F,/G,/A,/ | %65
 B,/A,/G,/F,/ G,B, E,2 z/ E,/F,/G,/ | A,/=G,/F,/E,/ F,A, D,2 z/ E,/F,/G,/ | %67
 A,/G,/A,/B,/ C/D/C/B,/ A,/B,,/C,/D,/ E,/^D,/E,/F,/ | %68
 =G,/A,/G,/F,/ E,/F,/G,/A,/ B,/^A,/B,/C/ D/E/D/C/ | B,/C/D/E/ F/=G/F/E/ DB,EC | %70
 ^A,F,B,=G, E,C,F,E, | D,F,B,, z z D,=G,, z | z B,,E, z z C^A,F, | D,F,B,B,, E,F,=G,E, | %74
 F,2 z ^A, B,D EF/E/ | DCDE DEDC | B,F,zE, D,=G,/E,/ F,F,, | B,, z z2 z4 | z8 | %79
 A,,=G,, F,,D, A,A,, z A, | A,A,, z A, =G,F,E,^G, | D,A,, z2 z4 | z8 | z8 | A,=G,F,D, A,G,F,D, | %85
 A,=G,F,D, G,F,E,A, | D,A,/B,/ A,=G, F,A,DA, | D,F,B,F, B,,B,/C/ B,A, | G,E,C,A,, E,E,, z E, | %89
 E,E,, z A, DCB,E | A,E,C,A,, B,,B,/A,/ B,D | G,B,/A,/ G,E, A,,>B,, C,D, | E,>F, G,F, C,D,E,E,, | %93
 A,2 z2 z4 | z8 | z4 C,E, A,,2 | z C,F,, z z A,,D,, z | z B,,G,,E, C,A,,F,,F, | %98
 B,,D,/C,/ B,,A,, G,,B,,E,,G,, | A,,C, D,E,/D,/ C,D,C,B,, | C,D,C,B,, A,,4- | A,,D,E,D,, A,,4 | %102
 z8 ||[K:C][M:6/8] A,A,,D, E,>D,C,/B,,/ | A,,A,D E>DC/B,/ | A, ^C,2 D,DF, | G,B,, z C,CE, | %107
 F,3- F,/E,/D,/C,/B,,/A,,/ | ^G,,/E,,/A,,/=G,,/F,,/E,,/ F,, F,2- | F,B,,^G,, A,, F,,2 | %110
 E,, D,,2 C,/B,,/D,/C,/B,,/A,,/ | ^G,,/E,,/A,,/=G,,/F,,/E,,/ G,,F,, z | %112
 F,/E,/G,/F,/E,/D,/ C,G,G,, | C,^C, z F,G,/A,/_B, | E,/D,/F,/E,/D,/C,/ _B,,/G,,/A,,A, | %115
 D/C/E/D/C/B,/ A,E z | CDD, G,2 z | B,,/A,,/C,/B,,/A,,/G,,/ E,2 D, | C,/B,,/D,/C,/B,,/A,,/ F,2 E, | %119
 D,/C,/E,/D,/C,/B,,/ A,,E, z | C,^F,,A,, B,,/C,/B,,/A,,/G,,/F,,/ | E,,E,A, B,>A,G,/^F,/ | %122
 E,E,,A,, B,,>A,,G,,/^F,,/ | E,,^G,, z A,,A,C, | D,^F, z G,,G,B,, | C, z C- C/B,/A,/G,/^F,/E,/ | %126
 ^D,/B,,/E,/=D,/C,/B,,/ C,3- | C,E,,G,, A,,B,,B,, | E,,6- | E,,/^F,,/^G,,/A,,/B,,/C,/ D,^C, z | %130
 C,B,, z A,,D,,E,, | A,,G,, z F,/E,/G,/F,/E,/D,/ | ^C,/B,,/D,/C,/B,,/A,,/ D,2 z | G,,2 z C,2 z | %134
 F,2 z B,,2 z | E,^G,,E,, A,,D,,E,, | A,,6 | A,,/A,/^G,/E,/A,/=G,/ F,/D,/E,E,, | z6 | z6 | z6 || %141
[K:A][M:3/8] z3 | z3 | z3 | z3 | z3 | z3 | z3 | z3 | A,G,F, | E,G,,B,, | E,,E,A,, | F,,B,,E,, | %153
 A,,B,,G,,- | G,,A,,F,,- | F,,G,,E,, | B,,C,^D, | E,2 z | E,,F,,G,, | A,,2 z | A,,G,,F,, | %161
 B,,>A,G,/F,/ | E,/A,/B,B,, | E,,/E,/F,/E,/F,/G,/ | A,/A,,/B,,/A,,/B,,/C,/ | D,,/D,/E,/D,/E,/F,/ | %166
 G,,/G,/A,/G,/A,/B,/ | C,/C/D/C/D/E/ | F/F,/G,/F,/G,/A,/ | B,,/B,/C/B,/C/D/ | E/E,/F,/E,/F,/G,/ | %171
 A,,2 z | A,C,E, | A,,A,D, | B,,E,A,, | z3 | z3 | z3 | z3 | z3 | A,,B,,C, | D,2 z | D,C,B,, | %183
 E,>D,C,/B,,/ | A,,/D,/E,E,, | A,,C,A,, | A,,D,A,, | A,,D,A,, | A,,E,A,, | A,,D,F, | G,,E,A, | %191
 D,E,E,, | A,,/C,/B,,/A,,/B,,/C,/ | F,, F,2- | F, F,/4^E,/4F,/4E,/4F,/4E,/4F,/4E,/4 | %195
 F,/A,,/B,, z | G,/B,,/C, z | z/ C/D/C/B,/A,/ | B,/G,/C/B,/A,/G,/ | F,DB, | G,^E,C, | F,,C,F, | %202
 E,/4^D,/4E,/4D,/4E,/4D,/4E,/4D,/4 B,, | E,,B,,E, | D,/4C,/4D,/4C,/4D,/4C,/4D,/4C,/4 A,, | %205
 ^D,,F,,^D, | C,/4B,,/4C,/4B,,/4C,/4B,,/4C,/4B,,/4 G,, | C,/G,/A,/G,/F,/E,/ | F,/^D,/G,/F,/E,/D,/ | %209
 E,C,C- | C C/4^B,/4C/4B,/4C/4B,/4C/4B,/4 | C/E,/ F,2 | ^D/F,/ G,2 | E/^D/C/B,/A,/G,/ | %214
 F,/^D,/G,/F,/E,/D,/ | C,E,A, | G,/4F,/4G,/4F,/4G,/4F,/4G,/4F,/4 ^D, | G,,^D,G, | %218
 F,/4E,/4F,/4E,/4F,/4E,/4F,/4E,/4 C, | F,,C,F, | E,/4^D,/4E,/4D,/4E,/4D,/4E,/4D,/4B,, | E,G,,B,, | %222
 E,,G,,B,, | E,G,,A,, | F,,B,,E,, | A,,B,,G,,- | G,,A,,F,,- | F,,G,,E,, | B,,2 z | %229
 z/ B,,/C,/B,,/C,/^D,/ | E,,/E,/F,/E,/F,/G,/ | A,,/A,/B,/A,/B,/C/ | ^D/^D,/E,/D,/E,/F,/ | %233
 G,,/G,/A,/G,/A,/B,/ | C/C,/^D,/C,/D,/E,/ | F,,/F,/G,/F,/G,/A,/ | B,/B,,/C,/B,,/C,/^D,/ | E,,2 z | %238
 E,,G,,B,, | z3 | z3 | z3 | z3 | z3 | B,,C,^D, | E,2 z | E,F,G, | A,2 z | A,,G,,F,, | %249
 B,,>A,G,/F,/ | E,/A,/B,B,, | E,G,E, | E,A,E, | E,A,E, | E,B,E, | E,A,C | ^D,B,,E, | A,B,B,, | %258
 E, z2 | z3 | z3 | z3 | z3 | z3 | E,2 z | E,,2 z | A,,E,A,- | A,/=C/B,/A,/=G,/F,/ | =G,C,E, | %269
 F,/=G,/F,/E,/D,/C,/ | B,,2 z | C,2 z | F,,/C,/F,/E,/^D,/C,/ | ^B,,/C,/^D,/B,,/G,,/B,,/ | %274
 C,/G,/C/B,/^A,/G,/ | =G,/^G,/^A,/=G,/^D,/G,/ | G,2 z | G,,2 z | C,/C/B,/A,/G,/F,/ | %279
 ^E,/F,/G,/E,/C,/E,/ | F,2 z | F,,2 z | B,,2 z | B,2 z | z3 | z3 | z3 | C,/D,/C,/B,,/A,,/G,,/ | %288
 F,,F, z | G,^B,, z | C,/^D,/E,/C,/A,,/F,,/ | B,,/C,/^D,/B,,/G,,/E,,/ | A,,/B,,/C,/A,,/F,,/^D,,/ | %293
 G,,F,G,, | G,,E,G,, | G,,^D,G,, | G,/F,/E,/^D,/E,/C,/ | F,G,A, | ^B,,G,,C, | %299
 B,,B,,/4A,,/4B,,/4A,,/4B,,/4A,,/4B,,/4A,,/4 | G,,2 z | z3 | z/ G,/A,/G,/F,/E,/ | %303
 F,/^D,/G,/F,/E,/D,/ | E,^E,C, | F,^D,C, | ^B,,G,,B,, | C,E,G, | C2 z | C,2 z | C,,2 z | z3 | %312
 F,/E,/^D,/F,/E,/C,/ | A,/F,/G,G,, | C,2 z | z/ E/D/C/B,/A,/ | =G,/F,/E,/D,/C,/B,,/ | ^A,,F,,A,, | %318
 B,,2 z | B,2 z | B,,2 z | B,2 z | B,,2 z | B,2 z | B,,2 z | B,2 z | E,2 z | E,,G,,E,, | A,,2 z | %329
 A,2 z | A,,2 z | A,2 z | A,,2 z | A,2 z | A,, =F,,2 | E,, E,2- | E,D,/=C,/D,- | D,/=C,/D,/E,/=F, | %338
 B,,=C,/D,/E, | A,,B,,C, | D,E,=F, | E,E,,E, | E,F,,E, | E,G,,E, | E,A,,E, | D,D,,D,- | %346
 D,/=F,/E,/B,,/=C,/G,,/ | A,,/E,,/ =F,,2 | E,,E,/D,/C,/B,,/ | z3 | z3 | z3 | z3 | z3 | z3 | %355
 E,C,A,, | E,,E,^D, | E,2 A,, | F,,B,,E, | ^A,,B,,=A,, | G,,A,,G,, | F,,D,B,, | E,A,F, | D, z z | %364
 E, z z | C, z z | D, z z | B,, z z | G,,G,E, | A,C,/D,/C,/B,,/ | A,,C,E, | A,CD | B,E,A, | %373
 D,E,C,- | C,D,B,,- | B,,C,A,, | E,F,G, | A,2 z | z A,F, | B,2 z | z G,E, | A,2 z | %382
 z F,/E,/D,/C,/ | B,,/F,/E,/D,/C,/B,,/ | A,,/E,/A,/G,/F,/E,/ | D,/F,/B,/A,/G,/F,/ | E,>G,,A,,/C,/ | %387
 F,/D,/E,E,, | A,,C,A,, | A,,D,A,, | A,,D,A,, | A,,E,A,, | A,,D,F, | G,,E,A, | z3 | z3 |] %396
V:3
 x8 | x8 | x8 | x8 | x8 | x8 | x8 | x8 | x8 | x8 | x8 | x8 | x8 | x8 | x8 | x8 | x8 | x8 | x8 | %19
 x8 | x8 | x8 | x8 | x8 | x8 | x8 | x8 | x8 | x8 | x8 | x8 | x8 | x8 | x8 | x8 | x8 | x8 | x8 | %38
 x8 | x8 | x8 | x8 | x8 | x8 | x8 | x8 | x8 | x8 | x8 | x8 | x8 | x8 | x8 | x8 | x8 | x8 | x8 | %57
 x8 | x8 | x8 | x8 | x8 | x8 | x8 | x8 | x8 | x8 | x8 | x8 | x8 | x8 | x8 | x8 | x8 | x8 | x8 | %76
 x8 | x8 | x8 | x8 | x8 | x8 | x8 | x8 | x8 | x8 | x8 | x8 | x8 | x8 | x8 | x8 | x8 | %93
 [A,,C,E,]2 z2 z4 | x8 | z4 C,E, A,,2 | x8 | x8 | x8 | x8 | x8 | x8 | x8 ||[K:C][M:6/8] x6 | x6 | %105
 x6 | x6 | x6 | x6 | x6 | x6 | x6 | x6 | x6 | x6 | x6 | x6 | x6 | x6 | x6 | x6 | x6 | x6 | x6 | %124
 x6 | x6 | x6 | x6 | x6 | x6 | x6 | x6 | x6 | x6 | x6 | x6 | x6 | x6 | x6 | x6 | x6 || %141
[K:A][M:3/8] x3 | x3 | x3 | x3 | x3 | x3 | x3 | x3 | x3 | x3 | x3 | x3 | x3 | x3 | x3 | x3 | x3 | %158
 x3 | x3 | x3 | x3 | x3 | x3 | x3 | x3 | x3 | x3 | x3 | x3 | x3 | x3 | x3 | x3 | x3 | x3 | x3 | %177
 x3 | x3 | x3 | x3 | x3 | x3 | x3 | x3 | x3 | x3 | x3 | x3 | x3 | x3 | x3 | x3 | x3 | x3 | x3 | %196
 x3 | x3 | x3 | x3 | x3 | x3 | x3 | x3 | x3 | x3 | x3 | z3 | x3 | x3 | x3 | x3 | x3 | x3 | x3 | %215
 x3 | x3 | x3 | x3 | x3 | x3 | x3 | x3 | x3 | x3 | x3 | x3 | x3 | x3 | x3 | x3 | x3 | x3 | x3 | %234
 x3 | x3 | x3 | x3 | x3 | x3 | x3 | x3 | x3 | x3 | x3 | x3 | x3 | x3 | x3 | x3 | x3 | x3 | x3 | %253
 x3 | x3 | x3 | x3 | x3 | x3 | x3 | x3 | x3 | x3 | x3 | x3 | x3 | x3 | x3 | x3 | x3 | x3 | x3 | %272
 x3 | x3 | x3 | x3 | x3 | x3 | x3 | x3 | x3 | x3 | x3 | x3 | x3 | x3 | x3 | x3 | x3 | x3 | x3 | %291
 x3 | x3 | x3 | x3 | x3 | x3 | x3 | x3 | x3 | x3 | x3 | x3 | x3 | x3 | x3 | x3 | x3 | x3 | x3 | %310
 x3 | x3 | x3 | x3 | x3 | x3 | x3 | x3 | x3 | x3 | x3 | x3 | x3 | x3 | x3 | x3 | x3 | x3 | x3 | %329
 x3 | x3 | x3 | x3 | x3 | x3 | x3 | x3 | x3 | x3 | x3 | x3 | x3 | x3 | x3 | x3 | x3 | x3 | x3 | %348
 x3 | x3 | x3 | x3 | x3 | x3 | x3 | x3 | x3 | x3 | x3 | x3 | x3 | x3 | x3 | x3 | x3 | x3 | x3 | %367
 x3 | x3 | x3 | x3 | x3 | x3 | x3 | x3 | x3 | x3 | x3 | x3 | x3 | x3 | x3 | x3 | x3 | x3 | x3 | %386
 x3 | x3 | x3 | x3 | x3 | x3 | x3 | x3 | x3 | x3 |] %396
V:4
 z/ E/F/G/ A/B/c/A/ B/A/G/B/ A/B/c/A/ | B/A/G/B/ A/B/c/A/ fe d/c/d/e/ | %2
 d/4c/4d/4c/4B z/ B/c/d/ e/d/c/B/ c/B/4A/4B/c/4d/4 | %3
 c/B/A/G/ A/G/4F/4G/A/4B/4 A/!courtesy!=G/F/E/ F/E/4D/4E/F/4G/4 | %4
 F/A/^G/A/ B/G/A/B/ E/G/F/G/ A/F/G/A/ | %5
 D/F/B,/C/ D/B,/C/D/[I:staff +1] F,/4E,/4F,/4E,/4F,/4E,/4F,/4E,/4[I:staff -1] z/ f/e/d/ | %6
 c/B/A/c/ B/A/G/B/ A/E/F/G/ A/E/F/D/ | %7
 E/A/F/D/ E/C/D/B,/ C/E/D/4C/4B,/ C/4[I:staff +1]B,/4A,/B,/4A,/4G,/ | %8
 A,[I:staff -1] C/D/ E[FA] [EAc]>[EGd] [EAe][FAd] | [EAc]>[DGB] [EA][FAd] [GB][Gd]/F/ [EBd][Ac] | %10
 z/ E/F/G/ A/B/c/A/ B/A/G/B/ A/B/c/A/ | B/A/G/B/ A/B/c/A/ fe d/c/d/e/ | %12
 d/4c/4d/4c/4B [Ae][Fce] [FB^d]>e [FBf][GBe] | [FB^d]>e [FBf][GBe] [Gc]F/E/ [FAd][GBe] | %14
 [Acf]B[FBf][G^df] [Gce][Fce] [FBd]2 | [GBe]/E/F/G/ A/B/c/A/ B/A/G/B/ A/B/c/A/ | %16
 B/A/G/B/ A/B/c/A/ fe d/c/d/e/ | d/4c/4d/4c/4B z/ B/c/d/ e/d/c/B/ c/B/4A/4B/c/4d/4 | %18
 c/B/A/G/ A/G/4F/4G/A/4B/4 A4- | AG/F/ G/A/B/e/ ^d/c/B/A/ G/A/B/e/ | %20
 ^d/c/B/A/ G/A/B/G/ F/4E/4F/4E/4F/4E/4F/4E/4 z d | e/c/^d/f/ e/d/c/B/ A/G/A- A/f/d/B/ | %22
 B/4A/4G/A- A/f/^d/B/ G/B/e- e/d/4c/4d/c/4B/4 | a/g/a- a/f/g/^d/ e/B/c/A/ F>E | %24
 E2 z [GBe] [FB^d]2 [EBe][EGB] | [^DFB]2 [EB][GBe] [Ace][Be][Ae][A^d] | %26
 [GBe][FB^d]/e/ [FBf][FBd] [EBe] ded | e^BcB cGAG | A4- AG/F/ G2- | G/c/F/G/ A/F/G/A/ B,4- | %30
 B,2 z2 z/ B/c/^d/ e/B/c/A/ | B/e/c/A/ B/A/4G/4A/G/4F/4 G/E/C/A/ B,/G/A,/F/ | %32
[I:staff +1] G,/B,/[I:staff -1]E/A/ G/4F/4G/4F/4G/4F/4E/ Eeca | g/a/ b2 a- a/e/^d/c/ B/A/G/F/ | %34
 G/A/B/f/ e/4^d/4e/4d/4e/4d/4e/ e/B,/C/^D/ E/F/G/E/ | F/E/^D/F/ E/F/G/E/ F/E/D/F/ E/F/G/E/ | %36
 cB A/G/A/B/ G/F/E z2 | z fdB z FDB, | z B-B^A c/4B/4c/4B/4c/4B/4c/4B/4 c/4B/4c/4B/4c/4B/4c/4B/4 | %39
 c/4B/4c/4B/4c/4B/4c/4B/4 c/4B/4c/4B/4c/4B/4c/4B/4 c/4B/4c/4B/4c/4B/4c/4B/4 c/4B/4c/4B/4c/4B/4c/4B/4 | %40
 c/4B/4C/^D/^E/ F/G/A/F/ G/F/E/G/ F/G/A/F/ | G/F/^E/G/ F/G/A/F/ dc B/A/B/c/ | %42
 A/G/F/A/ B/A/4G/4A/G/4F/4 G/B/A/c/ d/c/4B/4c/B/4A/4 | B/d/c/^e/ f/e/4d/4e/d/4c/4 d4- | %44
 d2- d/d/c/B/ A/^E/F/A/ G>F | F2 z f ^eczF | ^ECzF d2- d e/d/ | c3 D B2- B/d/c/B/ | %48
 A/F/G z/ G/A/B/ c/B/A/G/ Ac | F2 z/ F/G/^A/ B/=A/G/F/ GB | E2 z/ E/F/G/ A/G/A/B/ c/d/e/f/ | %51
 B2 z/ B/c/^d/ e2- e/F/G/^A/ | B/^A/B/c/ d/e/f/=g/ c2 z/ c/^d/^e/ | %53
 f2- f/^e/f/g/ c2- c/B/4c/4d/4c/4B/4A/4 | G2- G/F/4^E/4F/4E/4D/4C/4 D z z/ G/A/B/ | %55
 c/B/A/G/ A/G/4F/4G/A/4B/4 A/=G/F/E/ F/E/4D/4E/F/4G/4 | %56
 F/E/D/C/ D/D/4C/4B,/D/4E/4 D/f/^e/f/ g/e/f/g/ | c4- c/A/G/A/ B/G/A/B/ | %58
 ^E/C/E/G/ B/d/c/B/ A/G/F/A/ G/F/E/G/ | %59
 G/4F/4G/4F/4G/4F/4G/4F/4 G/4F/4G/4F/4G/4F/4G/4F/4 G/4F/4G/4F/4G/4F/4G/4F/4 G/4F/4G/4F/4G/4F/4G/4F/4 | %60
 G/4F/4c/B/G/ A/F/G/^E/ F>d G>F | FfdB z FDB | z F d2- de/d/ c2- | cD B2- B/d/c/B/ ^A3/2G/4A/4 | %64
 B/G/^A z2 z/ c/d/e/ f/e/d/c/ | df B2 z/ B/c/^d/ e/=d/c/B/ | ce A2 z/ A/B/c/ d2- | %67
 d/E/F/G/ A/G/A/B/ c/d/e/f/ B2 | z/ B/c/^d/ e2- e/F/G/^A/ B/A/B/c/ | %69
 d/e/f/=g/ c2- c/B/4c/4d/4c/4B/4A/4 =G2- | G/F/4E/4F/4E/4D/4C/4 D2- D/=G/4F/4E/4D/4C/4B,/4 ^A, z | %71
 z ^ABA BF=GF | =G^DED E2 e2- | e/c/B/c/ d/B/c/d/ =G4- | G/e/c/^A/ F2- F z z2 | %75
 z/ F/G/^A/ B/F/=G/E/ F/B/G/E/ F/D/E/C/ | %76
 D/d/c/B/4^A/4 B/A/4G/4A/4B/4c/ F/A/B/c/ B/4A/4B/4A/4B/4A/4B/ | BA d/A/B/=G/ F/G/A- A/d/B/G/ | %78
 F/=G/A- A/d/B/^G/ E/F/G- G/A/F/D/ | EA, z d c/B/A/=G/ F/G/A/d/ | c/B/A/=G/ F/G/A/F/ D2 z c | %81
 d/B/c/e/ d/d/c/B/ G/A/B- B/e/c/A/ | G/A/B- B/e/c/A/ F/A/d- d/c/4B/4c/B/4A/4 | %83
 d/f/e- e/d/c/B/ A/G/F/A/ A/4G/4A/4G/4 A/4G/4A/ | A8- | %85
 A2- A/=G/F/A/ D/C/B,/C/ D/4C/4D/4C/4D/4C/4D/ | D/d/c z/ c/d/e/ f/e/d/c/ d/e/4f/4c/d/4e/4 | %87
 d/c/B/^A/ B/c/4d/4A/B/4c/4 B/=A/G/F/ G/A/B/G/ | F/E/F/G/ A/B/c/A/ B/A/G/B/ A/B/c/A/ | %89
 B/A/G/B/ A/B/c/A/ fe d/c/d/e/ | cB z2 z4 | [EBd]>c d[GB] [Ac]>d ef | [GBe]>A BG [EA][FAd] [EGB]2 | %93
 z/ E/F/G/ A/B/c/A/ B/A/G/B/ A/B/c/A/ | B/A/G/B/ A/B/c/A/ fe d/c/d/e/ | %95
 d/4c/4d/4c/4B z/ B/c/d/ e/d/c/B/ c/B/4A/4B/c/4d/4 | %96
 c/B/A/G/ A/G/4F/4G/A/4B/4 A/=G/F/E/ F/E/4D/4E/F/4^G/4 | F/A/G/A/ B/G/A/B/ E/G/F/G/ A/F/G/A/ | %98
 D4- D/E/G/B/ d/f/e/d/ | c/B/A/c/ B/A/G/B/ A4- | A4- A/e/d/B/ c/4B/4A/B/4A/4G/ | %101
 A/E/F/D/ B,>[I:staff +1]A, !fermata!A,4 |[I:staff -1] z8 || %103
[K:C][M:6/8] E/D/F/E/D/C/ D/4C/4D/4C/4B, z | c/B/d/c/B/A/ B/4A/4B/4A/4^G z | G>_BA/G/ F3- | %106
 F>AG/F/ E3- | E/(D/F/E/D/C/) B,3- | B,/D/C/B,/A,/^G,/ A,/B,/C/E/D/F/ | B,^GB- B/G/A/c/B/A/ | %110
 ^G/^F/A/G/F/E/ A/G/B/A/G/A/ | B/d/c/B/A/B/ ^cd z | DEF G/4F/4E/ D>E | %113
 F/4E/4F/4E/4F/4E/4F/4E/4F/4E/4F/4E/4 F/4E/4F/4E/4 D2 | G>AF- F/G/F/4E/4F/4E/4F/4E/4F/ | F3 ^FG z | %116
 AG^F GB,/C/D/E/ | =F3- F/B,/C/D/E/F/ | G3- G/^C/D/E/F/G/ | A3{AB} cB z | B/A/c/B/A/G/ ^F2 z | %121
 G/^F/A/G/F/E/ E^D z | B/A/c/B/A/G/ A/4G/4A/4G/4^F z | ^G/A/ B2- B/A/c/B/A/=G/ | %124
 ^F/G/ A2- A/G/B/A/G/F/ | E3- E/^D/^F/E/D/E/ | B,3- B,/^D/E/G/^F/A/ | ^D/^F/A/c/B/A/ G/A<FE/ | %128
 E3- E/^F/^G/A/B/c/ | dB^G Ee z | A{B}d z c/B/d/c/B/c/ | %131
 B/4A/4B/4A/4B/4A/4B/4A/4B/4A/4B/4A/4 B/4A/4B/4A/4B/4A/4B/4A/4B/4A/4B/4A/4 | %132
 B/4A/4B/4A/4B/4A/4B/4A/4B/4A/4B/4A/4 B/4A/4D/E/F/G/A/ | B3- B/C/D/E/^F/^G/ | A3- A/B,/C/D/E/F/ | %135
 ^G,B,E- E/C/DC/4B,/4C/4B,/4 | A,2 z z/ e/d/B/c/A/ | B>cA- A/B<^GA/ | %138
 A/E/F/D/E/B,/ C/^G,/A,/G,/A,/B,/ | C/E/D/ B,/C/A,/ B,3 | z6 ||[K:A][M:3/8] EA/G/A/B/ | cA/c/B/d/ | %143
 c/G/A/c/f | e/4d/4e/4d/4e/4d/4e/4d/4c | B/F/G/B/e/c/ | A/E/F/A/d/B/ | %147
 G/A/B/4A/4B/4A/4B/4A/4G/4A/4 | B/A/G/F/E/D/ | C/B,/A,/B,/C/^D/ | E/G/ B2- | B/F/G/B/e- | %152
 e/c/^d/f/e/B/ | c/A/F z | B/G/E z | A/F/B,/E/G/B/ | ^DEF- | F/^D/E/F/G/A/ | B/A/G/F/E/D/ | %159
 C/D/C/B,/A,/B,/ | C^DE | ^D/B,/C/D/E/F/ | G/c<FE/ | Eed | cd/c/d/e/ | fdc | Bc/B/c/d/ | ecB | %168
 AB/A/B/c/ | dBA | G2 z | EA/G/A/B/ | cA/c/B/d/ | c/G/A/c/f | e/4d/4e/4d/4e/4d/4e/4d/4c | %175
 B/F/G/B/e/c/ | A/E/F/A/d/B/ | G/A/B/4A/4B/4A/4B/4A/4G/4A/4 | B/A/G/F/E/D/ | C/D/C/B,/A,/B,/ | %180
 CE/4D/4E/4D/4E- | E/C/D/E/F/=G/ | A/=G/F/E/D/C/ | B,/C/D/B,/C/D/ | E/B<GA/ | A/c<ec/ | A/c<fd/ | %187
 B/d<gd/ | c/e/ a2- | a/=g/f/e/d/c/ | B/A/B/G/A- | A/B/A/4G/4A/4G/4A/4G/4A/ | A2 z | z3 | z3 | %195
 z/ c/d/c/B/A/ | B/G/c/B/A/G/ | AFf- | ff/4^e/4f/4e/4f/4e/4f/4e/4 | f/A/B z | g/B/c z | %201
 a/g/f/e/d/c/ | B/^d/f/a/g/f/ | g/f/e/d/c/B/ | A/c/e/g/f/e/ | f/e/^d/c/^B/^A/ | G/^B/^d/f/e/d/ | %207
 e3 | e/4^d/4c/4d/4e/4d/4e/4d/4e/4d/4e/4d/4 | c/G/A/G/F/E/ | F/^D/G/F/E/D/ | ECc- | c ^B2 | %213
 c/^B/c/^d/e/c/ | ^d/e/f/a/g/f/ | e/^d/ c2- | cAF | ^D B2- | BGE | C A2- | AF^D | B,E/^D/E/F/ | %222
 GE/G/F/A/ | G/^D/E/G/c | B/4A/4B/4A/4B/4A/4B/4A/4 G | F/C/^D/F/B/G/ | E/B,/C/E/A/F/ | %227
 ^D/E/F/4E/4F/4E/4F/4E/4D/4E/4 | F/E/^D/C/B,/A,/ | G,2 z | Ee^d | c^d/c/d/e/ | f^dc | Bc/B/c/^d/ | %234
 ecB | A3- | A/G/A/^D/E/F/ | G/F/G/B,/C/^D/ | E/G/ B2- | B/F/G/B/e- | e/c/^d/f/e/B/ | c/A/f z | %242
 B/G/e z | A/F/B,/E/G/B/ | ^DEF- | F/^D/E/F/G/A/ | B/A/G/F/E/D/ | C/D/C/B,/A,/B,/ | C^DE | %249
 ^D/B,/C/D/E/F/ | G/c<GE/ | E/^D/E/G/B- | B/G/E/A/c- | c/A/F/A/^d- | d/B/G/B/e/=d/ | c/B/A/G/F/E/ | %256
 A/G/A/F/G- | G/A<FE/- | EG^A | Bcd | ^A=gf | ef/e/d/c/ | e/4d/4e/4d/4e/4d/4e/4d/4e/4d/4e/4d/4 | %263
 e/4^d/4e/4d/4e/4d/4e/4d/4e/4d/4e/4d/4 | ed/c/B/A/ | G/A/B/G/E/G/ | A/e/a/=g/f/e/ | ^d/e/f/d/B/d/ | %268
 f/4e/4f/4e/4f/4e/4f/4e/4f/4e/4f/4e/4 | f/4e/4f/4e/4f/4e/4f/4e/4f/4e/4f/4e/4 | %270
 f/4e/4f/4e/4^d/c/d- | dcB | A/G/A/c/B/A/ | G/^A/^B/^d/=c/G/ | C2 z | z3 | z ^D=F | FGA | =Fdc | %279
 Bc/B/A/G/ | B/4A/4B/4A/4B/4A/4B/4A/4B/4A/4B/4A/4 | B/4^A/4B/4A/4B/4A/4B/4A/4B/4A/4B/4A/4 | %282
 BA/G/F/E/ | D/E/F/^D/B,/D/ | E/B/e/d/c/B/ | ^A/B/c/A/F/A/ | c/4B/4c/4B/4c/4B/4c/4B/4c/4B/4c/4B/4 | %287
 c/4B/4c/4B/4c/4B/4c/4B/4c/4B/4c/4B/4 | c/4B/4 B/A/G/A- | AG^d- | dGc- | cFB- | BA/G/A- | %293
 A^B,/^D/G- | GC/E/^A- | A^D/F/^B- | BE/G/c- | c/B/A/G/F/E/ | ^D/C/D/^B,/C/B,/ | C/E/^D/C/^B,/C/ | %300
 ^B,/^d/e/d/c/^B/ | c/^A/^d/c/^B/A/ | ^B/G/c/B/c- | c^B^d | G3- | G/C/ F2- | F/^D/G/F/E/D/ | %307
 E/^D/C/D/E/F/ | G/F/E/G/F/A/ | G/F/E/G/c/e/ | ^d/c/=c/d/^c/e/ | A/G/F/A/G/E/ | ^D>DG/E/ | %313
 ^D/4E/4F<DC/ | C2 z | z3 | z3 | z3 | FB/^A/B/c/ | dB/d/c/e/ | d/^A/B/d/=g | %321
 f/4e/4f/4e/4f/4e/4f/4e/4 d | ^d/B/e/=d/c/B/ | B/4^A/4B/4A/4B/4A/4B/4A/4B/4A/4B/4A/4 | BF=G | %325
 AB=c | G=fe | de/d/=c/B/ | =c/B/A/B/c/d/ | e/d/=c/e/d/=f/ | e/d/=c/e/A/c/ | B/A/G/B/A/E/ | %332
 =G =F2- | F/B,/E/D/=C/B,/ | =C/D/E/4D/4E/4D/4E/4D/4C/4D/4 | E/B/=c/B/A/G/ | A/F/B/A/G/F/ | %337
 G/E/A/G/A- | AG/F/G | A3- | A/e/d/=c/B/A/ | d/=c/ d2 | =c/B/ c2 | B/A/ B2 | A/G/ A2 | z A=f | %346
 B>de/B/ | =c/e/d/c/B/A/ | G/A/BE- | EA/G/A/B/ | cA/c/B/d/ | c/G/A/c/f | %352
 e/4d/4e/4d/4e/4d/4e/4d/4 c | B/F/G/B/e/c/ | A/E/F/A/d/B/ | G/A/B/4A/4B/4A/4B/4A/4G/4A/4 | %356
 B/A/G/A/B- | B/F/G/B/e- | e/c/^d/f/e- | eFd- | dEc- | c/E/F/A/d/B/ | G/D/E/G/c/A/ | f/e/d/c/B/A/ | %364
 G/B/d/f/e/d/ | e/d/c/B/A/G/ | F/A/c/e/d/c/ | d/c/B/A/G/F/ | E/G/B/d/c/B/ | c/d/e/G/A/B/ | %370
 cA/c/B/d/ | c/G/A/c/f | e/4d/4e/4d/4e/4d/4e/4d/4 c | B/F/G/B/e/c/ | A/E/F/A/d/B/ | G/A<AG/4A/4 | %376
 B/A/G/F/E/D/ | C/E/G/B/E/G/ | A/G/F/E/D/C/ | B,/D/F/A/D/F/ | G/F/E/D/C/B,/ | A,/C/E/G/C/E/ | %382
 F/E/D/C/B,/A,/ | G,/B,/E/F/G/E/ | A2 z | A2 z | G/A<BE/ | A/B<GA/ | AA,/C/E- | E/C/A,/D/F- | %390
 F/D/B,/D/G- | G/E/C/E/A/=G/ | F/E/D/C/B,/A,/ | D/C/D/B,/C | A/B<GA/ | !fermata!A3 |] %396
V:5
 A,2 z A, G,B,E,A, | G,B,E,A, A,3 G, | A,G, z2 z G,A, z | z ^E,F, z z C,D, z | %4
 D,B,,G,,E, C,A,,F,,D, | B,,A,,G,,F,, G,,/B,,/C,/D,/ E,/F,/G,/E,/ | A,F,D,E, C,B,,C,D, | %7
 C,D,C,B,, A,,F,E,E,, | A,,A,/B,/ CD A,>B, CD | A,>B, CD EB,/A,/ G,A, | E,D,C,A,, E,E,,zE, | %11
 E,E,, z A,, D,C,B,,E, | A,,E,CA, B,>C ^DE | B,>C ^DE A,>G, F,E, | ^D,^D/C/ DB, CA,B,B,, | %15
 E,D,C,A,, E,D,C,A,, | E,D,C,A,, D,C,B,,E, | A,,E,/F,/ E,D, C,E,A,E, | A,,C,F,C, F,,F,/G,/ F,E, | %19
 ^D,B,G,E, B,B,,zB, | B,B,,zE, A,G,F,B, | E,B,,G,,E,, F,,F,/E,/ F,A, | ^D,F,/E,/ D,B,, E,>F, G,A, | %23
 B,>C ^DB, G,A,B,B,, | E,,2 z E, B,A,G,E, | B,A,G,E, A,G,F,B, | E,B,/C/ ^DB, G,B,E, z | %27
 z G,C, z z E,A,, z | z F,^D,B, G,E,C,C | F,A,/G,/ F,E, ^D,F,B,,D, | E,G, A,B,/A,/ G,A,G,F, | %31
 G,A,G,F, E,4- | E,/B,,/C,/A,,/ B,,/^D,/F,/A,/ G,/E,/F,/G,/ A,/B,/C/A,/ | %33
 B,/A,/G,/B,/ A,/B,/C/A,/ ^D,F,D,B,, | E,/F,/G,/A,/ B,B,, E,,2 z E, | B,A,G,E, B,A,G,E, | %36
 A,G,F,B, E,C,D,B,, | F,F,,zF, F,F,, z =G,/F,/ | E,D,C,F, B,,B,/A,/ =G,F, | %39
 E,F,E,D, C,D,/C,/ D,B,, | C,C,,zC, C,C,,zC, | C,C,, z D,/C,/ B,,A,,G,,C, | %42
 F,,F,/E,/ D,C, B,,C,B,,A,, | G,,A,,/G,,/ A,,F,, B,,A,,B,,G,, | C,G,^E,C, F,B,CC, | %45
 F,,/C,/^D,/^E,/ F,/G,/A,/F,/ G,/F,/E,/G,/ F,/G,/A,/F,/ | %46
 G,/F,/^E,/G,/ F,/G,/A,/F,/ B,,/A,/G,/F,/ =E,/D,/C,/B,,/ | %47
 A,,/G,/F,/E,/ D,/C,/B,,/A,,/ G,,/F,/^E,/^D,/ C,/B,,/A,,/G,,/ | F,,C, z2 z2 z/ C,/^D,/^E,/ | %49
 F,/E,/D,/C,/ D,F, B,,2 z/ B,,/C,/^D,/ | E,/D,/C,/B,,/ C,E, A,,2 z/ B,,/C,/D,/ | %51
 E,/^D,/E,/F,/ G,/A,/G,/F,/ E,/F,,/G,,/A,,/ B,,/^A,,/B,,/C,/ | %52
 D,/E,/D,/C,/ B,,/C,/D,/E,/ F,/^E,/F,/G,/ A,/B,/A,/G,/ | F,/G,/A,/B,/ C/D/C/B,/ A,F,B,G, | %54
 ^E,C,F,D, B,,G,,C,B,, | A,,C,F,, z z A,,D,, z | z F,,B,, z z G,^E,C, | A,,C,F,F,, B,,C,D,B,, | %58
 C,2 z ^E, F,A, B,C/B,/ | A,G,A,B, A,B,A,G, | F,C, z B,, A,,D,/B,,/ C,C,, | %61
 F,,/F,/G,/^A,/ B,/C/D/B,/ C/B,/A,/C/ B,/C/D/B,/ | C/B,/^A,/C/ B,/C/D/B,/ E,/D/C/B,/ A,/G,/F,/E,/ | %63
 D,/C/B,/A,/ =G,/F,/E,/D,/ C,/B,/^A,/^G,/ F,/E,/D,/C,/ | B,,F, z2 z2 z/ F,/G,/A,/ | %65
 B,/A,/G,/F,/ G,B, E,2 z/ E,/F,/G,/ | A,/=G,/F,/E,/ F,A, D,2 z/ E,/F,/G,/ | %67
 A,/G,/A,/B,/ C/D/C/B,/ A,/B,,/C,/D,/ E,/^D,/E,/F,/ | %68
 =G,/A,/G,/F,/ E,/F,/G,/A,/ B,/^A,/B,/C/ D/E/D/C/ | B,/C/D/E/ F/=G/F/E/ DB,EC | %70
 ^A,F,B,=G, E,C,F,E, | D,F,B,, z z D,=G,, z | z B,,E, z z C^A,F, | D,F,B,B,, E,F,=G,E, | %74
 F,2 z ^A, B,D EF/E/ | DCDE DEDC | B,F,zE, D,=G,/E,/ F,F,, | B,,D,/E,/ F,=G, D,>E, F,G, | %78
 D,>E, F,=G, A,E,/D,/ C,D, | A,,=G,, F,,D, A,A,, z A, | A,A,, z A, =G,F,E,^G, | %81
 D,A,, F,D, E,>F, G,A, | E,>F, G,A, D,>C, B,,A,, | G,,G,/F,/ G,E, F,D, E,E,, | A,=G,F,D, A,G,F,D, | %85
 A,=G,F,D, G,F,E,A, | D,A,/B,/ A,=G, F,A,DA, | D,F,B,F, B,,B,/C/ B,A, | G,E,C,A,, E,E,, z E, | %89
 E,E,, z A, DCB,E | A,E,C,A,, B,,B,/A,/ B,D | G,B,/A,/ G,E, A,,>B,, C,D, | E,>F, G,F, C,D,E,E,, | %93
 A,2 z A,, E,D,C,A,, | E,D,C,A,, D,C,B,,E, | A,,E,/F,/ G,E, C,E, A,,2 | z C,F,, z z A,,D,, z | %97
 z B,,G,,E, C,A,,F,,F, | B,,D,/C,/ B,,A,, G,,B,,E,,G,, | A,,C, D,E,/D,/ C,D,C,B,, | %100
 C,D,C,B,, A,,4- | A,,D,E,D,, A,,4 | z8 ||[K:C][M:6/8] A,A,,D, E,>D,C,/B,,/ | A,,A,D E>DC/B,/ | %105
 A, ^C,2 D,DF, | G,B,, z C,CE, | F,3- F,/E,/D,/C,/B,,/A,,/ | ^G,,/E,,/A,,/=G,,/F,,/E,,/ F,, F,2- | %109
 F,B,,^G,, A,, F,,2 | E,, D,,2 C,/B,,/D,/C,/B,,/A,,/ | ^G,,/E,,/A,,/=G,,/F,,/E,,/ G,,F,, z | %112
 F,/E,/G,/F,/E,/D,/ C,G,G,, | C,^C, z F,G,/A,/_B, | E,/D,/F,/E,/D,/C,/ _B,,/G,,/A,,A, | %115
 D/C/E/D/C/B,/ A,E z | CDD, G,2 z | B,,/A,,/C,/B,,/A,,/G,,/ E,2 D, | C,/B,,/D,/C,/B,,/A,,/ F,2 E, | %119
 D,/C,/E,/D,/C,/B,,/ A,,E, z | C,^F,,A,, B,,/C,/B,,/A,,/G,,/F,,/ | E,,E,A, B,>A,G,/^F,/ | %122
 E,E,,A,, B,,>A,,G,,/^F,,/ | E,,^G,, z A,,A,C, | D,^F, z G,,G,B,, | C, z C- C/B,/A,/G,/^F,/E,/ | %126
 ^D,/B,,/E,/=D,/C,/B,,/ C,3- | C,E,,G,, A,,B,,B,, | E,,6- | E,,/^F,,/^G,,/A,,/B,,/C,/ D,^C, z | %130
 C,B,, z A,,D,,E,, | A,,G,, z F,/E,/G,/F,/E,/D,/ | ^C,/B,,/D,/C,/B,,/A,,/ D,2 z | G,,2 z C,2 z | %134
 F,2 z B,,2 z | E,^G,,E,, A,,D,,E,, | A,,6 | A,,/A,/^G,/E,/A,/=G,/ F,/D,/E,E,, | %138
 A,,2 G,, F,,/E,,/ F,,2 | E,,6 | z6 ||[K:A][M:3/8] A,C,E, | A,,C,E, | A,F,D, | B,,E,A,, | D,E,C,- | %146
 C,D,B,,- | B,,C,A,, | E,F,G, | A,G,F, | E,G,,B,, | E,,E,A,, | F,,B,,E,, | A,,B,,G,,- | %154
 G,,A,,F,,- | F,,G,,E,, | B,,C,^D, | E,2 z | E,,F,,G,, | A,,2 z | A,,G,,F,, | B,,>A,G,/F,/ | %162
 E,/A,/B,B,, | E,,/E,/F,/E,/F,/G,/ | A,/A,,/B,,/A,,/B,,/C,/ | D,,/D,/E,/D,/E,/F,/ | %166
 G,,/G,/A,/G,/A,/B,/ | C,/C/D/C/D/E/ | F/F,/G,/F,/G,/A,/ | B,,/B,/C/B,/C/D/ | E/E,/F,/E,/F,/G,/ | %171
 A,,2 z | A,C,E, | A,,A,D, | B,,E,A,, | D,E,C,- | C,D,B,,- | B,,C,A,, | E,F,G, | A,2 z | A,,B,,C, | %181
 D,2 z | D,C,B,, | E,>D,C,/B,,/ | A,,/D,/E,E,, | A,,C,A,, | A,,D,A,, | A,,D,A,, | A,,E,A,, | %189
 A,,D,F, | G,,E,A, | D,E,E,, | A,,/C,/B,,/A,,/B,,/C,/ | F,, F,2- | %194
 F, F,/4^E,/4F,/4E,/4F,/4E,/4F,/4E,/4 | F,/A,,/B,, z | G,/B,,/C, z | z/ C/D/C/B,/A,/ | %198
 B,/G,/C/B,/A,/G,/ | F,DB, | G,^E,C, | F,,C,F, | E,/4^D,/4E,/4D,/4E,/4D,/4E,/4D,/4 B,, | E,,B,,E, | %204
 D,/4C,/4D,/4C,/4D,/4C,/4D,/4C,/4 A,, | ^D,,F,,^D, | C,/4B,,/4C,/4B,,/4C,/4B,,/4C,/4B,,/4 G,, | %207
 C,/G,/A,/G,/F,/E,/ | F,/^D,/G,/F,/E,/D,/ | E,C,C- | C C/4^B,/4C/4B,/4C/4B,/4C/4B,/4 | C/E,/ F,2 | %212
 ^D/F,/ G,2 | E/^D/C/B,/A,/G,/ | F,/^D,/G,/F,/E,/D,/ | C,E,A, | %216
 G,/4F,/4G,/4F,/4G,/4F,/4G,/4F,/4 ^D, | G,,^D,G, | F,/4E,/4F,/4E,/4F,/4E,/4F,/4E,/4 C, | F,,C,F, | %220
 E,/4^D,/4E,/4D,/4E,/4D,/4E,/4D,/4B,, | E,G,,B,, | E,,G,,B,, | E,G,,A,, | F,,B,,E,, | A,,B,,G,,- | %226
 G,,A,,F,,- | F,,G,,E,, | B,,2 z | z/ B,,/C,/B,,/C,/^D,/ | E,,/E,/F,/E,/F,/G,/ | %231
 A,,/A,/B,/A,/B,/C/ | ^D/^D,/E,/D,/E,/F,/ | G,,/G,/A,/G,/A,/B,/ | C/C,/^D,/C,/D,/E,/ | %235
 F,,/F,/G,/F,/G,/A,/ | B,/B,,/C,/B,,/C,/^D,/ | E,,2 z | E,,G,,B,, | E,G,,A,, | F,,B,,E,, | %241
 A,,B,,G,,- | G,,A,,F,,- | F,,G,,E,, | B,,C,^D, | E,2 z | E,F,G, | A,2 z | A,,G,,F,, | %249
 B,,>A,G,/F,/ | E,/A,/B,B,, | E,G,E, | E,A,E, | E,A,E, | E,B,E, | E,A,C | ^D,B,,E, | A,B,B,, | %258
 E,/B,/E/D/C/E/ | D/F/E/D/C/B,/ | C/D/E/C/^A,/C/ | F,^A,F, | B,2 z | B,,2 z | E,2 z | E,,2 z | %266
 A,,E,A,- | A,/=C/B,/A,/=G,/F,/ | =G,C,E, | F,/=G,/F,/E,/D,/C,/ | B,,2 z | C,2 z | %272
 F,,/C,/F,/E,/^D,/C,/ | ^B,,/C,/^D,/B,,/G,,/B,,/ | C,/G,/C/B,/^A,/G,/ | =G,/^G,/^A,/=G,/^D,/G,/ | %276
 G,2 z | G,,2 z | C,/C/B,/A,/G,/F,/ | ^E,/F,/G,/E,/C,/E,/ | F,2 z | F,,2 z | B,,2 z | B,2 z | %284
 E,E,,E,- | E,/=G,/F,/E,/D,/C,/ | D,G,,B,, | C,/D,/C,/B,,/A,,/G,,/ | F,,F, z | G,^B,, z | %290
 C,/^D,/E,/C,/A,,/F,,/ | B,,/C,/^D,/B,,/G,,/E,,/ | A,,/B,,/C,/A,,/F,,/^D,,/ | G,,F,G,, | G,,E,G,, | %295
 G,,^D,G,, | G,/F,/E,/^D,/E,/C,/ | F,G,A, | ^B,,G,,C, | %299
 B,,B,,/4A,,/4B,,/4A,,/4B,,/4A,,/4B,,/4A,,/4 | G,,2 z | z3 | z/ G,/A,/G,/F,/E,/ | %303
 F,/^D,/G,/F,/E,/D,/ | E,^E,C, | F,^D,C, | ^B,,G,,B,, | C,E,G, | C2 z | C,2 z | C,,2 z | z3 | %312
 F,/E,/^D,/F,/E,/C,/ | A,/F,/G,G,, | C,2 z | z/ E/D/C/B,/A,/ | =G,/F,/E,/D,/C,/B,,/ | ^A,,F,,A,, | %318
 B,,2 z | B,2 z | B,,2 z | B,2 z | B,,2 z | B,2 z | B,,2 z | B,2 z | E,2 z | E,,G,,E,, | A,,2 z | %329
 A,2 z | A,,2 z | A,2 z | A,,2 z | A,2 z | A,, =F,,2 | E,, E,2- | E,D,/=C,/D,- | D,/=C,/D,/E,/=F, | %338
 B,,=C,/D,/E, | A,,B,,C, | D,E,=F, | E,E,,E, | E,F,,E, | E,G,,E, | E,A,,E, | D,D,,D,- | %346
 D,/=F,/E,/B,,/=C,/G,,/ | A,,/E,,/ =F,,2 | E,,E,/D,/C,/B,,/ | A,,C,E, | A,C,E, | A,,F,D, | %352
 B,,E,A,, | D,E,C,- | C,D,B,, | E,C,A,, | E,,E,^D, | E,2 A,, | F,,B,,E, | ^A,,B,,=A,, | G,,A,,G,, | %361
 F,,D,B,, | E,A,F, | D, z z | E, z z | C, z z | D, z z | B,, z z | G,,G,E, | A,C,/D,/C,/B,,/ | %370
 A,,C,E, | A,CD | B,E,A, | D,E,C,- | C,D,B,,- | B,,C,A,, | E,F,G, | A,2 z | z A,F, | B,2 z | %380
 z G,E, | A,2 z | z F,/E,/D,/C,/ | B,,/F,/E,/D,/C,/B,,/ | A,,/E,/A,/G,/F,/E,/ | %385
 D,/F,/B,/A,/G,/F,/ | E,>G,,A,,/C,/ | F,/D,/E,E,, | A,,C,A,, | A,,D,A,, | A,,D,A,, | A,,E,A,, | %392
 A,,D,F, | G,,E,A, | D,E,E,, | !fermata!A,,3 |] %396
V:6
 [A,,C,E,]2 z A,, E,D,C,A,, | E,D,C,A,, D,C,B,,E, | A,,E,/F,/ G,E, C,E,A,G, | %3
 A,C,F,=F, ^F,A,,D,C, | x8 | x8 | x8 | x8 | x8 | x8 | x8 | x8 | x8 | x8 | x8 | x8 | x8 | x8 | x8 | %19
 x8 | x8 | x8 | x8 | x8 | x8 | x8 | x8 | x8 | x8 | x8 | x8 | x8 | x8 | x8 | x8 | x8 | x8 | x8 | %38
 x8 | x8 | x8 | x8 | x8 | x8 | x8 | x8 | x8 | x8 | x8 | x8 | x8 | x8 | x8 | x8 | x8 | x8 | x8 | %57
 x8 | x8 | x8 | x8 | x8 | x8 | x8 | x8 | x8 | x8 | x8 | x8 | x8 | x8 | x8 | x8 | x8 | x8 | x8 | %76
 x8 | x8 | x8 | x8 | x8 | x8 | x8 | x8 | x8 | x8 | x8 | x8 | x8 | x8 | x8 | x8 | x8 | %93
 [A,,C,E,]2 z A, G,B,E,A, | G,B,E,A, A,3 G, | A,G,/F,/ G,E, C,E, A,,2 | x8 | x8 | x8 | x8 | x8 | %101
 x8 | x8 ||[K:C][M:6/8] x6 | x6 | x6 | x6 | x6 | x6 | x6 | x6 | x6 | x6 | x6 | x6 | x6 | x6 | x6 | %118
 x6 | x6 | x6 | x6 | x6 | x6 | x6 | x6 | x6 | x6 | x6 | x6 | x6 | x6 | x6 | x6 | x6 | x6 | x6 | %137
 x6 | x6 | x6 | x6 ||[K:A][M:3/8] x3 | x3 | x3 | x3 | x3 | x3 | x3 | x3 | x3 | x3 | x3 | x3 | x3 | %154
 x3 | x3 | x3 | x3 | x3 | x3 | x3 | x3 | x3 | x3 | x3 | x3 | x3 | x3 | x3 | x3 | x3 | x3 | x3 | %173
 x3 | x3 | x3 | x3 | x3 | x3 | x3 | x3 | x3 | x3 | x3 | x3 | x3 | x3 | x3 | x3 | x3 | x3 | x3 | %192
 x3 | x3 | x3 | x3 | x3 | x3 | x3 | x3 | x3 | x3 | x3 | x3 | x3 | x3 | x3 | z3 | x3 | x3 | x3 | %211
 x3 | x3 | x3 | x3 | x3 | x3 | x3 | x3 | x3 | x3 | x3 | x3 | x3 | x3 | x3 | x3 | x3 | x3 | x3 | %230
 x3 | x3 | x3 | x3 | x3 | x3 | x3 | x3 | x3 | x3 | x3 | x3 | x3 | x3 | x3 | x3 | x3 | x3 | x3 | %249
 x3 | x3 | x3 | x3 | x3 | x3 | x3 | x3 | x3 | x3 | x3 | x3 | x3 | x3 | x3 | x3 | x3 | x3 | x3 | %268
 x3 | x3 | x3 | x3 | x3 | x3 | x3 | x3 | x3 | x3 | x3 | x3 | x3 | x3 | x3 | x3 | x3 | x3 | x3 | %287
 x3 | x3 | x3 | x3 | x3 | x3 | x3 | x3 | x3 | x3 | x3 | x3 | x3 | x3 | x3 | x3 | x3 | x3 | x3 | %306
 x3 | x3 | x3 | x3 | x3 | x3 | x3 | x3 | x3 | x3 | x3 | x3 | x3 | x3 | x3 | x3 | x3 | x3 | x3 | %325
 x3 | x3 | x3 | x3 | x3 | x3 | x3 | x3 | x3 | x3 | x3 | x3 | x3 | x3 | x3 | x3 | x3 | x3 | x3 | %344
 x3 | x3 | x3 | x3 | x3 | x3 | x3 | x3 | x3 | x3 | x3 | x3 | x3 | x3 | x3 | x3 | x3 | x3 | x3 | %363
 x3 | x3 | x3 | x3 | x3 | x3 | x3 | x3 | x3 | x3 | x3 | x3 | x3 | x3 | x3 | x3 | x3 | x3 | x3 | %382
 x3 | x3 | x3 | x3 | x3 | x3 | x3 | x3 | x3 | x3 | x3 | x3 | x3 | x3 |] %396
V:7
 x8 | x8 | x8 | x8 | x8 | x8 | x8 | x8 | x8 | x8 | x8 | x8 | x8 | x8 | x8 | x8 | x8 | x8 | x8 | %19
 x8 | x8 | x8 | x8 | x8 | x8 | x8 | x8 | x8 | x8 | x8 | x8 | x8 | x8 | x8 | x8 | x8 | x8 | x8 | %38
 x8 | x8 | x8 | x8 | x8 | x8 | x8 | x8 | x8 | x8 | x8 | x8 | x8 | x8 | x8 | x8 | x8 | x8 | x8 | %57
 x8 | x8 | x8 | x8 | x8 | x8 | x8 | x8 | x8 | x8 | x8 | x8 | x8 | x8 | x8 | x8 | x8 | x8 | x8 | %76
 x8 | x8 | x8 | x8 | x8 | x8 | x8 | x8 | x8 | x8 | x8 | x8 | x8 | x8 | x8 | x8 | x8 | x8 | x8 | %95
 x8 | x8 | x8 | x8 | x8 | x8 | x8 | x8 ||[K:C][M:6/8] x6 | x6 | x6 | x6 | x6 | x6 | x6 | x6 | x6 | %112
 x6 | x6 | x6 | x6 | x6 | x6 | x6 | x6 | x6 | x6 | x6 | x6 | x6 | x6 | x6 | x6 | x6 | x6 | x6 | %131
 x6 | x6 | x6 | x6 | x6 | x6 | x6 | z3 z A,A,- | A,/C/B,/^G,/A,/^F,/ G,3 | x6 ||[K:A][M:3/8] x3 | %142
 x3 | x3 | x3 | x3 | x3 | x3 | x3 | x3 | x3 | x3 | x3 | x3 | x3 | x3 | x3 | x3 | x3 | x3 | x3 | %161
 x3 | x3 | x3 | x3 | x3 | x3 | x3 | x3 | x3 | x3 | x3 | x3 | x3 | x3 | x3 | x3 | x3 | x3 | x3 | %180
 x3 | x3 | x3 | x3 | x3 | x3 | x3 | x3 | x3 | x3 | x3 | x3 | x3 | x3 | x3 | x3 | x3 | x3 | x3 | %199
 x3 | x3 | x3 | x3 | x3 | x3 | x3 | x3 | x3 | x3 | x3 | x3 | x3 | x3 | x3 | x3 | x3 | x3 | x3 | %218
 x3 | x3 | x3 | x3 | x3 | x3 | x3 | x3 | x3 | x3 | x3 | x3 | x3 | x3 | x3 | x3 | x3 | x3 | x3 | %237
 x3 | x3 | x3 | x3 | x3 | x3 | x3 | x3 | x3 | x3 | x3 | x3 | x3 | x3 | x3 | x3 | x3 | x3 | x3 | %256
 x3 | x3 | x3 | x3 | x3 | x3 | x3 | x3 | z3 | x3 | x3 | x3 | x3 | x3 | x3 | x3 | x3 | x3 | x3 | %275
 x3 | x3 | x3 | x3 | x3 | x3 | x3 | x3 | x3 | x3 | x3 | x3 | x3 | x3 | x3 | x3 | x3 | x3 | x3 | %294
 x3 | x3 | x3 | x3 | x3 | x3 | x3 | x3 | x3 | x3 | x3 | x3 | x3 | x3 | x3 | x3 | x3 | x3 | x3 | %313
 x3 | x3 | x3 | x3 | x3 | x3 | x3 | x3 | x3 | z3 | x3 | x3 | x3 | x3 | x3 | x3 | x3 | x3 | x3 | %332
 x3 | x3 | x3 | x3 | x3 | x3 | x3 | x3 | x3 | x3 | x3 | x3 | x3 | x3 | x3 | x3 | x3 | x3 | x3 | %351
 x3 | x3 | x3 | x3 | x3 | x3 | x3 | x3 | x3 | x3 | x3 | x3 | x3 | x3 | x3 | x3 | x3 | x3 | x3 | %370
 x3 | x3 | x3 | x3 | x3 | x3 | x3 | x3 | x3 | x3 | x3 | x3 | x3 | x3 | x3 | x3 | x3 | x3 | x3 | %389
 x3 | x3 | x3 | x3 | x3 | x3 | x3 |] %396

